!!!SOCIAL_FUNCTION:	songs connected with legends
!!!PDT:	1929
!!!OTL: No_35_The_Girls_are_Approaching.krn
!!!REG: Southwest
!!!LANG: Non-Tone
!!!LING_GROUP: Uto-Aztecan
**kern
*staff1
=1-
*clefF4
*k[f#]
*M2/4
4r
16G\LK
8G\
16d\Jk
=2
12d\L
12A\
12A\J
12A\L
12G\
12A\J
=3
12A\L
12G\
12G\J
8.G\L
16A\Jk
=4!|:
*M3/4
12A\L
12G\
12A\J
4A\
12c\L
12A\
12c\J
=5||
*M2/4
12c\L
12G\
12G\J
12G\L
12E\
12G\J
=6||
*M3/4
12G\L
12D\
12D\J
8.D\L
16G\Jk
12G\L
12E\
12G\J
=7||
*M2/4
4G\
4r
=8
8.G\L
16A\Jk
8.A\L
16A\Jk
=9||
*M3/4
12A\L
12G\
12A\J
12A\L
12G\
12G\J
8.G\L
16A\Jk
==:|!
*-
